src/assets/icons/messages-outline.svg

<svg width="24" height="25" viewBox="0 0 24 25" fill="none" xmlns="http://www.w3.org/2000/svg">
<mask id="mask0_6_392" style="mask-type:alpha" maskUnits="userSpaceOnUse" x="0" y="0" width="24" height="25">
<rect y="0.768066" width="24" height="24" fill="#C4C4C4"/>
</mask>
<g mask="url(#mask0_6_392)">
<path d="M19.25 3.76807H4.75C3.233 3.76807 2 5.00207 2 6.52007V19.0151C2 20.5331 3.233 21.7681 4.75 21.7681H19.25C20.767 21.7681 22 20.5331 22 19.0151V6.52007C22 5.00207 20.767 3.76807 19.25 3.76807ZM4.75 5.26807H19.25C19.94 5.26807 20.5 5.82807 20.5 6.51807V7.23206L12.45 12.5991C12.177 12.7791 11.824 12.7811 11.55 12.5971L3.5 7.23206V6.51807C3.5 5.82807 4.06 5.26807 4.75 5.26807ZM19.25 20.2661H4.75C4.06 20.2661 3.5 19.7061 3.5 19.0161V8.99007L10.74 13.8201C11.123 14.0761 11.562 14.2041 12 14.2041C12.44 14.2041 12.877 14.0761 13.26 13.8211L20.5 8.99106V19.0131C20.5 19.7031 19.94 20.2631 19.25 20.2631V20.2661Z" fill="black"/>
</g>
</svg>

<svg width="24" height="25" fill="none" xmlns="http://www.w3.org/2000/svg"><mask id="a" style="mask-type:alpha" maskUnits="userSpaceOnUse" x="0" y="0" width="24" height="25"><path fill="#C4C4C4" d="M0 .768h24v24H0z"/></mask><g mask="url(#a)"><path d="M19.25 3.768H4.75A2.753 2.753 0 0 0 2 6.52v12.495a2.754 2.754 0 0 0 2.75 2.753h14.5A2.754 2.754 0 0 0 22 19.015V6.52a2.753 2.753 0 0 0-2.75-2.752zm-14.5 1.5h14.5c.69 0 1.25.56 1.25 1.25v.714L12.45 12.6a.81.81 0 0 1-.9-.002L3.5 7.232v-.714c0-.69.56-1.25 1.25-1.25zm14.5 14.998H4.75c-.69 0-1.25-.56-1.25-1.25V8.99l7.24 4.83a2.265 2.265 0 0 0 2.52.001l7.24-4.83v10.022c0 .69-.56 1.25-1.25 1.25v.003z" fill="#000"/></g></svg>
